(/Applications/pcbgcode.repo/pcb-gcode.ulp)
(Copyright 2005 - 2012 by John Johnson)
(See readme.txt for licensing terms.)
(This file generated from the board:)
(.../808-Maraca/eagle/808-Maraca.brd)
(Current profile is .../pcbgcode.repo/profiles/mach.pp  )
(This file generated 5/6/16 12:07 AM)
(Settings from pcb-machine.h)
(spindle on time = 0.0000)
(spindle speed = 20000.0000)
(tool change at 0.0000  0.0000  1.5000  )
(feed rate xy = F0     )
(feed rate z  = F20    )
(Z Axis Settings)
(  High     Up        Down     Drill)
(0.2500  	0.0500  	-0.0035 	-0.0750 )
(Settings from pcb-defaults.h)
(isolate min = 0.0060)
(isolate max = 0.0200)
(isolate step = 0.0015)
(Generated bottom outlines, bottom drill, )
(Unit of measure: inch)
( Tool|       Size       |  Min Sub |  Max Sub |   Count )
( T01 | 0.800mm 0.0315in | 0.0000in | 0.0000in |       0 )
( T02 | 0.813mm 0.0320in | 0.0000in | 0.0000in |       0 )
( T03 | 1.000mm 0.0394in | 0.0000in | 0.0000in |       0 )
( T04 | 1.016mm 0.0400in | 0.0000in | 0.0000in |       0 )
( T05 | 1.118mm 0.0440in | 0.0000in | 0.0000in |       0 )
( T06 | 1.200mm 0.0472in | 0.0000in | 0.0000in |       0 )
( T07 | 1.300mm 0.0512in | 0.0000in | 0.0000in |       0 )
(Inch Mode)
G20
(Absolute Coordinates)
G90
S20000
G00 Z0.2500  
G00 X0.0000  Y0.0000  
M03
G04 P0.000000
M05
G00 Z1.5000  
M06 T01  ; 0.0315  
G01 Z0.0000  F20    
M06 
G00 Z0.0500  
M03
G04 P0.000000
G82 X-0.0700 Y2.0400  Z-0.0750 F20    R0.0500  P0.020000
G82 X-0.3000 Y2.0400  
M05
G00 Z1.5000  
G00 X0.0000  Y0.0000  
M06 T02  ; 0.0320  
G01 Z0.0000  F20    
M06 
G00 Z0.0500  
M03
G04 P0.000000
G82 X-0.1000 Y1.7800  Z-0.0750 F20    R0.0500  P0.020000
G82 X-0.1700 Y1.9500  
G82 X-0.3700 Y1.9500  
G82 X-0.5000 Y1.9500  
G82 X-0.5000 Y2.0500  
G82 X-0.3500 Y2.1500  
G82 X-0.1500 Y2.1500  
G82 X-0.3000 Y2.3500  
G82 X-0.5000 Y2.3500  
G82 X-0.5000 Y2.4500  
G82 X-0.6500 Y2.4500  
G82 X-0.7250 Y2.4000  
G82 X-0.6500 Y2.3500  
G82 X-0.7000 Y2.2500  
G82 X-0.8000 Y2.1100  
G82 X-0.7250 Y2.0600  
G82 X-0.8000 Y2.0100  
G82 X-0.9500 Y1.9800  
G82 X-0.9500 Y2.1000  
G82 X-1.1000 Y2.2500  
G82 X-1.2500 Y2.1000  
G82 X-1.2500 Y1.9800  
G82 X-1.1100 Y1.8500  
G82 X-1.0300 Y1.7000  
G82 X-1.0000 Y1.6000  
G82 X-0.9000 Y1.4750  
G82 X-0.9500 Y1.4000  
G82 X-0.8500 Y1.4000  
G82 X-0.7100 Y1.4800  
G82 X-0.6500 Y1.3500  
G82 X-0.5500 Y1.3500  
G82 X-0.5100 Y1.4800  
G82 X-0.4000 Y1.4500  
G82 X-0.4000 Y1.2500  
G82 X-0.4500 Y1.0500  
G82 X-0.4500 Y0.9500  
G82 X-0.3500 Y0.8500  
G82 X-0.6500 Y0.8500  
G82 X-0.7500 Y0.6900  
G82 X-0.8500 Y0.5400  
G82 X-0.7500 Y0.4900  
G82 X-1.0000 Y0.4500  
G82 X-1.2000 Y0.4000  
G82 X-1.2000 Y0.5000  
G82 X-1.2000 Y0.6000  
G82 X-1.2000 Y0.7000  
G82 X-1.2000 Y0.9000  
G82 X-1.3000 Y0.9000  
G82 X-1.4200 Y0.8900  
G82 X-1.3100 Y1.0400  
G82 X-1.2100 Y1.0400  
G82 X-1.3300 Y1.1700  
G82 X-1.3400 Y1.2800  
G82 X-1.4000 Y1.4000  
G82 X-1.4000 Y1.5000  
G82 X-1.4000 Y1.6000  
G82 X-1.3300 Y1.7000  
G82 X-1.4100 Y1.8500  
G82 X-1.2000 Y1.4750  
G82 X-1.1500 Y1.4000  
G82 X-1.2500 Y1.4000  
G82 X-1.1400 Y1.2800  
G82 X-0.9300 Y1.1700  
G82 X-1.0000 Y1.0000  
G82 X-1.0000 Y0.8500  
G82 X-0.8500 Y0.8400  
G82 X-0.8000 Y1.0000  
G82 X-1.4200 Y1.0900  
G82 X-1.5000 Y0.7000  
G82 X-1.5000 Y0.6000  
G82 X-1.5000 Y0.5000  
G82 X-1.5000 Y0.4000  
G82 X-1.4500 Y0.2500  
G82 X-1.2500 Y0.2500  
G82 X-0.8500 Y1.7500  
G82 X-0.9250 Y1.8000  
G82 X-0.8500 Y1.8500  
G82 X-0.5500 Y1.7500  
G82 X-0.4750 Y1.7000  
G82 X-0.5500 Y1.6500  
G82 X-0.4000 Y1.7800  
G82 X-0.8500 Y2.4500  
G82 X-0.9500 Y2.4500  
G82 X-1.1000 Y2.5000  
G82 X-1.2000 Y2.5000  
G82 X-0.9500 Y2.6500  
G82 X-0.8500 Y2.6500  
G82 X-0.5000 Y2.6500  
M05
G00 Z1.5000  
G00 X0.0000  Y0.0000  
M06 T03  ; 0.0394  
G01 Z0.0000  F20    
M06 
G00 Z0.0500  
M03
G04 P0.000000
G82 X-0.1500 Y2.5500  Z-0.0750 F20    R0.0500  P0.020000
G82 X-0.2500 Y2.5500  
G82 X-0.8000 Y0.3500  
G82 X-0.8000 Y0.2500  
M05
G00 Z1.5000  
G00 X0.0000  Y0.0000  
M06 T04  ; 0.0400  
G01 Z0.0000  F20    
M06 
G00 Z0.0500  
M03
G04 P0.000000
G82 X-0.5500 Y2.9000  Z-0.0750 F20    R0.0500  P0.020000
G82 X-0.6500 Y2.9000  
G82 X-0.7500 Y2.9000  
G82 X-0.8500 Y2.9000  
G82 X-0.9500 Y2.9000  
G82 X-0.9500 Y3.0000  
G82 X-0.8500 Y3.0000  
G82 X-0.7500 Y3.0000  
G82 X-0.6500 Y3.0000  
G82 X-0.5500 Y3.0000  
G82 X-1.0500 Y3.0000  
G82 X-1.1500 Y3.0000  
G82 X-1.1500 Y2.9000  
G82 X-1.0500 Y2.9000  
G82 X-1.2500 Y2.9000  
G82 X-1.2500 Y3.0000  
M05
G00 Z1.5000  
G00 X0.0000  Y0.0000  
M06 T05  ; 0.0440  
G01 Z0.0000  F20    
M06 
G00 Z0.0500  
M03
G04 P0.000000
G82 X-0.4000 Y2.6500  Z-0.0750 F20    R0.0500  P0.020000
G82 X-0.7300 Y2.6500  
M05
G00 Z1.5000  
G00 X0.0000  Y0.0000  
M06 T06  ; 0.0472  
G01 Z0.0000  F20    
M06 
G00 Z0.0500  
M03
G04 P0.000000
G82 X-0.1500 Y1.1531  Z-0.0750 F20    R0.0500  P0.020000
G82 X-0.1500 Y1.3500  
G82 X-0.1500 Y1.5469  
M05
G00 Z1.5000  
G00 X0.0000  Y0.0000  
M06 T07  ; 0.0512  
G01 Z0.0000  F20    
M06 
G00 Z0.0500  
M03
G04 P0.000000
G82 X-0.0980 Y0.5130  Z-0.0750 F20    R0.0500  P0.020000
G82 X-0.0984 Y0.5469  
G82 X-0.0980 Y0.5800  
G82 X-0.4980 Y0.3420  
G82 X-0.5315 Y0.3421  
G82 X-0.5650 Y0.3420  
G82 X-0.6180 Y0.5140  
G82 X-0.6181 Y0.5469  
G82 X-0.6180 Y0.5800  
T01 
G00 Z0.2500  
M05
M02
