(/Applications/pcbgcode.repo/pcb-gcode.ulp)
(Copyright 2005 - 2012 by John Johnson)
(See readme.txt for licensing terms.)
(This file generated from the board:)
(.../808-Maraca/eagle/808-Maraca.brd)
(Current profile is .../pcbgcode.repo/profiles/mach.pp  )
(This file generated 5/6/16 12:07 AM)
(Settings from pcb-machine.h)
(spindle on time = 0.0000)
(spindle speed = 15000.0000)
(milling depth = -0.0700)
(tool change at 0.0000  0.0000  1.5000  )
(feed rate xy = F10    )
(feed rate z  = F5     )
(Z Axis Settings)
(  High     Up        Down     Drill)
(0.2500  	0.0500  	-0.0035 	-0.0750 )
(Settings from pcb-defaults.h)
(isolate min = 0.0060)
(isolate max = 0.0200)
(isolate step = 0.0015)
(Generated bottom outlines, bottom drill, )
(Unit of measure: inch)
(Inch Mode)
G20
(Absolute Coordinates)
G90
S15000
G00 Z0.2500  
G00 X0.0000  Y0.0000  
M03
G04 P0.000000
G00 Z0.0500  
G00 X-0.0200 Y0.0000  
G01 Z-0.0700 F5     
G01 X-1.5900 Y0.0000  F10    
G01 X-1.6500 Y0.0600  
G01 X-1.6500 Y3.1000  
G01 X-1.6000 Y3.1500  
G01 X0.0000  Y3.1500  
G01 X0.0300  Y3.1200  
G01 X0.0300  Y0.0500  
G01 X-0.0200 Y0.0000  
G00 Z0.0500  
G00 X-0.1000 Y0.1500  
G01 Z-0.0700 F5     
G01 X-0.1000 Y0.2000  F10    
G01 X-0.1500 Y0.2000  
G01 X-0.1500 Y0.1500  
G01 X-0.1000 Y0.1500  
G00 Z0.0500  
G00 X-0.1100 Y2.9700  
G01 Z-0.0700 F5     
G01 X-0.1100 Y3.0200  F10    
G01 X-0.1600 Y3.0200  
G01 X-0.1600 Y2.9700  
G01 X-0.1100 Y2.9700  
G00 Z0.0500  
G00 X-1.4700 Y2.9700  
G01 Z-0.0700 F5     
G01 X-1.4700 Y3.0200  F10    
G01 X-1.5200 Y3.0200  
G01 X-1.5200 Y2.9700  
G01 X-1.4700 Y2.9700  
G00 Z0.2500  
M05
M02
